boxicons/svg/solid/bxs-flag-checkered.svg

<svg xmlns="http://www.w3.org/2000/svg" width="24" height="24" viewBox="0 0 24 24"><path d="M4 2v18H3v2h4v-2H6v-5h13a1 1 0 0 0 1-1V4a1 1 0 0 0-1-1H6V2H4zm4 3v2h2V5h2v2h2V5h2v2h2v2h-2v2h2v2h-2v-2h-2v2h-2v-2h-2v2H8v-2H6V9h2V7H6V5h2z"/><path d="M8 9h2v2H8zm4 0h2v2h-2zm-2-2h2v2h-2zm4 0h2v2h-2z"/></svg>

<svg xmlns="http://www.w3.org/2000/svg" width="24" height="24" viewBox="0 0 24 24"><path d="M4,2v18H3v2h1h2h1v-2H6v-5h13c0.553,0,1-0.448,1-1V4c0-0.552-0.447-1-1-1H6V2H4z M8,5v2h2V5h2v2h2V5h2v2h2v2h-2v2h2v2h-2 v-2h-2v2h-2v-2h-2v2H8v-2H6V9h2V7H6V5H8z"/><path d="M8 9H10V11H8zM12 9H14V11H12zM10 7H12V9H10zM14 7H16V9H14z"/></svg>
